static/img/kroki/69f50fe1281829aa1f0a56f13ec8ea73.svg

<?xml version="1.0" encoding="us-ascii" standalone="no"?><svg xmlns="http://www.w3.org/2000/svg" xmlns:xlink="http://www.w3.org/1999/xlink" contentStyleType="text/css" height="352px" preserveAspectRatio="none" style="width:350px;height:352px;" version="1.1" viewBox="0 0 350 352" width="350px" zoomAndPan="magnify"><defs/><g><!--class aws_ec2_snapshot--><g id="elem_aws_ec2_snapshot"><rect codeLine="22" fill="#3D176E" height="39.7891" id="aws_ec2_snapshot" rx="2.5" ry="2.5" style="stroke:#000D19;stroke-width:0.5;" width="197" x="7" y="206.58"/><ellipse cx="22" cy="226.4745" fill="#ADD1B2" rx="11" ry="11" style="stroke:#181818;stroke-width:1.0;"/><path d="M24.9688,232.1152 Q24.3906,232.412 23.75,232.5527 Q23.1094,232.7089 22.4063,232.7089 Q19.9063,232.7089 18.5781,231.0683 Q17.2656,229.412 17.2656,226.287 Q17.2656,223.162 18.5781,221.5058 Q19.9063,219.8495 22.4063,219.8495 Q23.1094,219.8495 23.75,220.0058 Q24.4063,220.162 24.9688,220.4589 L24.9688,223.1777 Q24.3438,222.5995 23.75,222.3339 Q23.1563,222.0527 22.5313,222.0527 Q21.1875,222.0527 20.5,223.1308 Q19.8125,224.1933 19.8125,226.287 Q19.8125,228.3808 20.5,229.4589 Q21.1875,230.5214 22.5313,230.5214 Q23.1563,230.5214 23.75,230.2558 Q24.3438,229.9745 24.9688,229.3964 L24.9688,232.1152 Z " fill="#000000"/><text fill="#D9B8FF" font-family="Helvetica" font-size="17" lengthAdjust="spacing" textLength="155" x="41" y="232.3598">aws_ec2_snapshot</text></g><!--class aws_ec2_volume--><g id="elem_aws_ec2_volume"><rect codeLine="24" fill="#3D176E" height="39.7891" id="aws_ec2_volume" rx="2.5" ry="2.5" style="stroke:#000D19;stroke-width:0.5;" width="185" x="158" y="106.79"/><ellipse cx="173" cy="126.6845" fill="#ADD1B2" rx="11" ry="11" style="stroke:#181818;stroke-width:1.0;"/><path d="M175.9688,132.3252 Q175.3906,132.622 174.75,132.7627 Q174.1094,132.9189 173.4063,132.9189 Q170.9063,132.9189 169.5781,131.2783 Q168.2656,129.622 168.2656,126.497 Q168.2656,123.372 169.5781,121.7158 Q170.9063,120.0595 173.4063,120.0595 Q174.1094,120.0595 174.75,120.2158 Q175.4063,120.372 175.9688,120.6689 L175.9688,123.3877 Q175.3438,122.8095 174.75,122.5439 Q174.1563,122.2627 173.5313,122.2627 Q172.1875,122.2627 171.5,123.3408 Q170.8125,124.4033 170.8125,126.497 Q170.8125,128.5908 171.5,129.6689 Q172.1875,130.7314 173.5313,130.7314 Q174.1563,130.7314 174.75,130.4658 Q175.3438,130.1845 175.9688,129.6064 L175.9688,132.3252 Z " fill="#000000"/><text fill="#D9B8FF" font-family="Helvetica" font-size="17" lengthAdjust="spacing" textLength="143" x="192" y="132.5698">aws_ec2_volume</text></g><!--class aws_kms_key--><g id="elem_aws_kms_key"><rect codeLine="26" fill="#3D176E" height="39.7891" id="aws_kms_key" rx="2.5" ry="2.5" style="stroke:#000D19;stroke-width:0.5;" width="158" x="101.5" y="306.37"/><ellipse cx="116.5" cy="326.2645" fill="#ADD1B2" rx="11" ry="11" style="stroke:#181818;stroke-width:1.0;"/><path d="M119.4688,331.9052 Q118.8906,332.202 118.25,332.3427 Q117.6094,332.4989 116.9063,332.4989 Q114.4063,332.4989 113.0781,330.8583 Q111.7656,329.202 111.7656,326.077 Q111.7656,322.952 113.0781,321.2958 Q114.4063,319.6395 116.9063,319.6395 Q117.6094,319.6395 118.25,319.7958 Q118.9063,319.952 119.4688,320.2489 L119.4688,322.9677 Q118.8438,322.3895 118.25,322.1239 Q117.6563,321.8427 117.0313,321.8427 Q115.6875,321.8427 115,322.9208 Q114.3125,323.9833 114.3125,326.077 Q114.3125,328.1708 115,329.2489 Q115.6875,330.3114 117.0313,330.3114 Q117.6563,330.3114 118.25,330.0458 Q118.8438,329.7645 119.4688,329.1864 L119.4688,331.9052 Z " fill="#000000"/><text fill="#D9B8FF" font-family="Helvetica" font-size="17" lengthAdjust="spacing" textLength="116" x="135.5" y="332.1498">aws_kms_key</text></g><!--class aws_region--><g id="elem_aws_region"><rect codeLine="28" fill="#3D176E" height="39.7891" id="aws_region" rx="2.5" ry="2.5" style="stroke:#000D19;stroke-width:0.5;" width="137" x="109" y="7"/><ellipse cx="124" cy="26.8945" fill="#ADD1B2" rx="11" ry="11" style="stroke:#181818;stroke-width:1.0;"/><path d="M126.9688,32.5352 Q126.3906,32.832 125.75,32.9727 Q125.1094,33.1289 124.4063,33.1289 Q121.9063,33.1289 120.5781,31.4883 Q119.2656,29.832 119.2656,26.707 Q119.2656,23.582 120.5781,21.9258 Q121.9063,20.2695 124.4063,20.2695 Q125.1094,20.2695 125.75,20.4258 Q126.4063,20.582 126.9688,20.8789 L126.9688,23.5977 Q126.3438,23.0195 125.75,22.7539 Q125.1563,22.4727 124.5313,22.4727 Q123.1875,22.4727 122.5,23.5508 Q121.8125,24.6133 121.8125,26.707 Q121.8125,28.8008 122.5,29.8789 Q123.1875,30.9414 124.5313,30.9414 Q125.1563,30.9414 125.75,30.6758 Q126.3438,30.3945 126.9688,29.8164 L126.9688,32.5352 Z " fill="#000000"/><text fill="#D9B8FF" font-family="Helvetica" font-size="17" lengthAdjust="spacing" textLength="95" x="143" y="32.7798">aws_region</text></g><!--link aws_ec2_snapshot to aws_kms_key--><g id="link_aws_ec2_snapshot_aws_kms_key"><path codeLine="30" d="M120.32,246.8 C132.34,262.47 149.33,284.63 162.2,301.41 " fill="none" id="aws_ec2_snapshot-to-aws_kms_key" style="stroke:#1A83AF;stroke-width:2.0;"/><polygon fill="#1A83AF" points="165.71,304.99,163.4114,295.4131,162.669,301.021,157.0611,300.2787,165.71,304.99" style="stroke:#1A83AF;stroke-width:2.0;"/></g><!--link aws_ec2_volume to aws_ec2_snapshot--><g id="link_aws_ec2_volume_aws_ec2_snapshot"><path codeLine="31" d="M221.85,147.01 C198.02,163.08 164.06,185.98 138.98,202.9 " fill="none" id="aws_ec2_volume-to-aws_ec2_snapshot" style="stroke:#1A83AF;stroke-width:2.0;"/><polygon fill="#1A83AF" points="135.09,206.2,144.7865,204.4744,139.2326,203.4002,140.3068,197.8463,135.09,206.2" style="stroke:#1A83AF;stroke-width:2.0;"/></g><!--link aws_ec2_volume to aws_kms_key--><g id="link_aws_ec2_volume_aws_kms_key"><path codeLine="32" d="M247.25,147.02 C242.91,170.87 234.26,212.42 221.5,246.37 C214.33,265.45 203.64,285.85 194.98,301.12 " fill="none" id="aws_ec2_volume-to-aws_kms_key" style="stroke:#1A83AF;stroke-width:2.0;"/><polygon fill="#1A83AF" points="192.13,305.09,200.0806,299.2773,194.6199,300.7541,193.1431,295.2934,192.13,305.09" style="stroke:#1A83AF;stroke-width:2.0;"/></g><!--link aws_region to aws_ec2_snapshot--><g id="link_aws_region_aws_ec2_snapshot"><path codeLine="33" d="M167.54,47 C159.57,62.76 148.44,85.86 140.5,106.79 C128.44,138.59 117.91,176.45 111.63,200.71 " fill="none" id="aws_region-to-aws_ec2_snapshot" style="stroke:#1A83AF;stroke-width:2.0;"/><polygon fill="#1A83AF" points="110.2,205.27,116.3117,197.5468,111.4429,200.4269,108.5628,195.5582,110.2,205.27" style="stroke:#1A83AF;stroke-width:2.0;"/></g><!--link aws_region to aws_ec2_volume--><g id="link_aws_region_aws_ec2_volume"><path codeLine="34" d="M191.92,47.22 C203.62,62.89 220.16,85.05 232.69,101.83 " fill="none" id="aws_region-to-aws_ec2_volume" style="stroke:#1A83AF;stroke-width:2.0;"/><polygon fill="#1A83AF" points="236.11,105.41,233.9264,95.8063,233.1168,101.4049,227.5182,100.5953,236.11,105.41" style="stroke:#1A83AF;stroke-width:2.0;"/></g><!--SRC=[XP1FQy8m6CRlVeg0Py4gctePT0NPBZBcRcF8Q_Ec3MsJyYOgRkoxhrKtOZBRGoxly-FvarnoP5ZLziWghBP8Pc0AgMeWg5XCf0-9BZMneH0WfZDVN6fbUu4LLCYUiDoZbIdun5ikqqAXCMpYI8-G5XdfdU9dUqkWJ2EXiWwLb61CR2t9xSwYKuOljdCXVD8t7KvvDBl70DF4aIx8U3pcqS97UgCwT_yHQ_c9B78_RQKj1ZM3Y1FLsR8bd9B1q5_zPiSNu5ogZDqvjzTp9r98L_Tr3bmVMbf0QTmOOv5GssEDIR0A5tCkPl_2pxVWjFqv1WUpmNIoCGfgaslBlWRVdhJNvQvPTYqKLVFmw5q9CwdLwHWOZzw7KJoVnikFqODhCV1o0ivrwOLTqqkRViCky1pq0m00]--></g></svg>

<svg xmlns="http://www.w3.org/2000/svg" width="350" height="352" preserveAspectRatio="none" style="width:350px;height:352px"><rect width="197" height="39.789" x="7" y="206.58" fill="#3D176E" rx="2.5" ry="2.5" style="stroke:#000d19;stroke-width:.5"/><circle cx="22" cy="226.475" r="11" fill="#ADD1B2" style="stroke:#181818;stroke-width:1"/><path d="M24.969 232.115q-.578.297-1.219.438-.64.156-1.344.156-2.5 0-3.828-1.64-1.312-1.657-1.312-4.782t1.312-4.781q1.328-1.656 3.828-1.656.703 0 1.344.156.656.156 1.219.453v2.719q-.625-.578-1.219-.844-.594-.281-1.219-.281-1.343 0-2.031 1.078-.688 1.062-.688 3.156 0 2.094.688 3.172.688 1.062 2.031 1.062.625 0 1.219-.265.594-.281 1.219-.86v2.72Z"/><text x="41" y="232.36" fill="#D9B8FF" font-family="Helvetica" font-size="17" textLength="155">aws_ec2_snapshot</text><rect width="185" height="39.789" x="158" y="106.79" fill="#3D176E" rx="2.5" ry="2.5" style="stroke:#000d19;stroke-width:.5"/><circle cx="173" cy="126.684" r="11" fill="#ADD1B2" style="stroke:#181818;stroke-width:1"/><path d="M175.969 132.325q-.578.297-1.219.438-.64.156-1.344.156-2.5 0-3.828-1.64-1.312-1.657-1.312-4.782t1.312-4.781q1.328-1.656 3.828-1.656.703 0 1.344.156.656.156 1.219.453v2.719q-.625-.579-1.219-.844-.594-.281-1.219-.281-1.344 0-2.031 1.078-.688 1.062-.688 3.156 0 2.094.688 3.172.688 1.062 2.031 1.062.625 0 1.219-.265.594-.281 1.219-.86v2.72Z"/><text x="192" y="132.57" fill="#D9B8FF" font-family="Helvetica" font-size="17" textLength="143">aws_ec2_volume</text><rect width="158" height="39.789" x="101.5" y="306.37" fill="#3D176E" rx="2.5" ry="2.5" style="stroke:#000d19;stroke-width:.5"/><circle cx="116.5" cy="326.264" r="11" fill="#ADD1B2" style="stroke:#181818;stroke-width:1"/><path d="M119.469 331.905q-.578.297-1.219.438-.64.156-1.344.156-2.5 0-3.828-1.64-1.312-1.657-1.312-4.782t1.312-4.781q1.328-1.656 3.828-1.656.703 0 1.344.156.656.156 1.219.453v2.719q-.625-.579-1.219-.844-.594-.281-1.219-.281-1.344 0-2.031 1.078-.688 1.062-.688 3.156 0 2.094.688 3.172.688 1.062 2.031 1.062.625 0 1.219-.265.594-.281 1.219-.86v2.72Z"/><text x="135.5" y="332.15" fill="#D9B8FF" font-family="Helvetica" font-size="17" textLength="116">aws_kms_key</text><rect width="137" height="39.789" x="109" y="7" fill="#3D176E" rx="2.5" ry="2.5" style="stroke:#000d19;stroke-width:.5"/><circle cx="124" cy="26.895" r="11" fill="#ADD1B2" style="stroke:#181818;stroke-width:1"/><path d="M126.969 32.535q-.578.297-1.219.438-.64.156-1.344.156-2.5 0-3.828-1.64-1.312-1.657-1.312-4.782t1.312-4.781q1.328-1.656 3.828-1.656.703 0 1.344.156.656.156 1.219.453v2.719q-.625-.578-1.219-.844-.594-.281-1.219-.281-1.344 0-2.031 1.078-.688 1.062-.688 3.156 0 2.094.688 3.172.688 1.062 2.031 1.062.625 0 1.219-.265.594-.281 1.219-.86v2.72Z"/><text x="143" y="32.78" fill="#D9B8FF" font-family="Helvetica" font-size="17" textLength="95">aws_region</text><path fill="none" d="M120.32 246.8c12.02 15.67 29.01 37.83 41.88 54.61" style="stroke:#1a83af;stroke-width:2"/><path fill="#1A83AF" d="m165.71 304.99-2.299-9.577-.742 5.608-5.608-.742 8.649 4.711z" style="stroke:#1a83af;stroke-width:2"/><path fill="none" d="M221.85 147.01c-23.83 16.07-57.79 38.97-82.87 55.89" style="stroke:#1a83af;stroke-width:2"/><path fill="#1A83AF" d="m135.09 206.2 9.696-1.726-5.553-1.074 1.074-5.554-5.217 8.354z" style="stroke:#1a83af;stroke-width:2"/><path fill="none" d="M247.25 147.02c-4.34 23.85-12.99 65.4-25.75 99.35-7.17 19.08-17.86 39.48-26.52 54.75" style="stroke:#1a83af;stroke-width:2"/><path fill="#1A83AF" d="m192.13 305.09 7.95-5.813-5.46 1.477-1.477-5.46-1.013 9.796z" style="stroke:#1a83af;stroke-width:2"/><path fill="none" d="M167.54 47c-7.97 15.76-19.1 38.86-27.04 59.79-12.06 31.8-22.59 69.66-28.87 93.92" style="stroke:#1a83af;stroke-width:2"/><path fill="#1A83AF" d="m110.2 205.27 6.112-7.723-4.87 2.88-2.88-4.869 1.638 9.712z" style="stroke:#1a83af;stroke-width:2"/><path fill="none" d="M191.92 47.22c11.7 15.67 28.24 37.83 40.77 54.61" style="stroke:#1a83af;stroke-width:2"/><path fill="#1A83AF" d="m236.11 105.41-2.184-9.604-.81 5.599-5.598-.81 8.592 4.815z" style="stroke:#1a83af;stroke-width:2"/></svg>
